X: 24890
T: Magpie's Nest, The
R: reel
M: 4/4
K: Gmajor
D|:B,DG,D EDB,D|GEDB, CB,A,G,|B,DG,E DB,A,B,|1 DEGA BG GD:|2 DEGA BG GA||
BddB ~A2 GA|Bz AF GFED|Bd ~d2 edBG|DEGA BGGA|
BddB ~A2 GA|Bz AF GFED|B,A,B,D CB,CE|DEGA BG G2||

